img/svg/private-ico-48.svg

<svg width="48" height="48" viewBox="0 0 48 48" fill="none" xmlns="http://www.w3.org/2000/svg">
<path d="M27.046 28.1666V27.3352C27.046 25.6836 25.6792 24.3398 23.9991 24.3398C22.3191 24.3398 20.9523 25.6836 20.9523 27.3352V28.1668C19.6958 28.3182 18.7188 29.3902 18.7188 30.6868V35.7649C18.7188 36.3258 19.1734 36.7805 19.7344 36.7805H28.2656C28.8266 36.7805 29.2812 36.3258 29.2812 35.7649V30.6868C29.2812 29.3896 28.3033 28.3172 27.046 28.1666ZM22.9835 27.3352C22.9835 26.8036 23.4391 26.3711 23.9991 26.3711C24.5592 26.3711 25.0148 26.8036 25.0148 27.3352V28.1477H22.9835V27.3352ZM27.25 34.7493H20.75V30.6868C20.75 30.4068 20.9778 30.179 21.2578 30.179H26.7422C27.0222 30.179 27.25 30.4068 27.25 30.6868V34.7493Z" fill="#E0E0E0"/>
<path d="M34.4609 19.6483V18.9226C34.4609 15.1055 31.3555 12 27.5383 12C25.8762 12 24.269 12.598 23.013 13.6839C22.182 14.4023 21.539 15.3029 21.1293 16.3038C20.4995 15.982 19.7962 15.8086 19.0742 15.8086C16.5821 15.8086 14.5547 17.836 14.5547 20.3281V21.2517C12.5223 21.7075 11 23.5111 11 25.6602C11 26.8674 11.457 27.9995 12.2868 28.848C13.1268 29.7068 14.2568 30.1797 15.4688 30.1797H16.0274C16.5883 30.1797 17.043 29.725 17.043 29.1641C17.043 28.6031 16.5883 28.1484 16.0274 28.1484H15.4688C14.102 28.1484 13.0313 27.0555 13.0313 25.6602C13.0313 24.2881 14.1668 23.1719 15.5625 23.1719H15.5704C16.1313 23.1719 16.586 22.7172 16.586 22.1563V20.3281C16.586 18.9561 17.7022 17.8398 19.0743 17.8398C19.787 17.8398 20.467 18.1472 20.94 18.683C21.2007 18.9783 21.6087 19.0963 21.9867 18.9856C22.3648 18.875 22.6448 18.5557 22.7051 18.1664C23.0703 15.8089 25.1482 14.0313 27.5383 14.0313C30.2354 14.0313 32.4297 16.2255 32.4297 18.9226V20.1717C32.4297 20.1796 32.4307 20.1873 32.4309 20.1951C32.422 20.5674 32.6178 20.9308 32.9692 21.1173C34.2026 21.7719 34.9688 23.0448 34.9688 24.4391C34.9688 27.4201 32.0562 28.1488 31.9692 28.1697C31.4234 28.283 31.0704 28.8157 31.1799 29.3632C31.2764 29.8461 31.7005 30.1799 32.1747 30.1799C32.2407 30.1799 32.3077 30.1734 32.3749 30.16C32.387 30.1575 33.5906 29.9088 34.7963 28.9772C36.238 27.8632 37 26.2939 37 24.4391C37 22.5029 36.041 20.7193 34.4609 19.6483Z" fill="#E0E0E0"/>
</svg>

<svg width="48" height="48" fill="none" xmlns="http://www.w3.org/2000/svg"><path d="M27.046 28.167v-.832c0-1.651-1.367-2.995-3.047-2.995-1.68 0-3.047 1.344-3.047 2.995v.832a2.542 2.542 0 00-2.233 2.52v5.078c0 .56.454 1.016 1.015 1.016h8.532c.56 0 1.015-.455 1.015-1.016v-5.078c0-1.297-.978-2.37-2.235-2.52zm-4.063-.832c0-.531.456-.964 1.016-.964s1.016.433 1.016.964v.813h-2.032v-.813zm4.267 7.414h-6.5v-4.062c0-.28.228-.508.508-.508h5.484c.28 0 .508.228.508.508v4.062z" fill="#E0E0E0"/><path d="M34.46 19.648v-.725A6.93 6.93 0 0027.539 12a6.92 6.92 0 00-6.409 4.304 4.516 4.516 0 00-6.574 4.024v.924C12.522 21.708 11 23.512 11 25.66c0 1.207.457 2.34 1.287 3.188a4.414 4.414 0 003.182 1.332h.558a1.016 1.016 0 000-2.032h-.558c-1.367 0-2.438-1.093-2.438-2.488 0-1.372 1.136-2.488 2.531-2.488h.008c.561 0 1.016-.455 1.016-1.016v-1.828a2.491 2.491 0 012.488-2.488 2.49 2.49 0 011.866.843 1.016 1.016 0 001.765-.517c.365-2.357 2.443-4.135 4.833-4.135a4.897 4.897 0 014.892 4.892v1.272c-.008.372.188.736.54.922a3.755 3.755 0 011.999 3.322c0 2.981-2.913 3.71-3 3.73a1.016 1.016 0 00.406 1.991c.012-.003 1.216-.251 2.421-1.183C36.238 27.863 37 26.294 37 24.44c0-1.936-.959-3.72-2.54-4.79z" fill="#E0E0E0"/></svg>
